X: 1
T:Luthien's
S:Mark Fitzsimons
R:Slide
O:New Zealand
M:12/8
I:speed 380
C:Mark Fitzsimons
A:Auckland
K:Emin
|:E2B B2B ABc B2A| GFE F2_E D2A A3|E2B e2f gag fed|^cB^A =AG=F E2D E3:|
^A|B2e e2f gfe cBA | GBd FBd =FBd Ad^f|g^de e=de ece eBe|^ce^A =AG=F EAD E2:|
